resources/icons/16px/paste-variable.svg

<svg width="16" height="16" viewBox="0 0 16 16" fill="none" xmlns="http://www.w3.org/2000/svg">
<path d="M9.99998 2V3H4.99998V2C4.99998 1.45 5.44998 1 5.99998 1H5.77998C6.11999 0.4 6.75998 0 7.49998 0C8.23998 0 8.87998 0.4 9.21999 1H8.99998C9.54998 1 9.99998 1.45 9.99998 2Z" fill="#111418"/>
<path d="M12 2C12.55 2 13 2.45 13 3V15C13 15.55 12.55 16 12 16H3C2.45 16 2 15.55 2 15V3C2 2.45 2.45 2 3 2H4V4H11V2H12ZM10.5411 11.4549L10.3159 11.3262C10.0656 11.6781 9.882 11.8927 9.7652 11.9871C9.69011 12.0386 9.58999 12.073 9.48987 12.073C9.36472 12.073 9.23957 11.9871 9.11442 11.8326C8.90584 11.5494 8.62217 10.7854 8.27175 9.52361C8.5888 8.96567 8.84744 8.59657 9.06436 8.42489C9.22288 8.29614 9.38975 8.23605 9.55661 8.23605C9.62336 8.23605 9.74017 8.2618 9.91538 8.30472C10.0822 8.35622 10.2408 8.37339 10.3659 8.37339C10.5495 8.37339 10.6996 8.3133 10.8164 8.18455C10.9416 8.05579 11 7.8927 11 7.69528C11 7.48069 10.9416 7.30901 10.8164 7.18884C10.6913 7.06009 10.5244 7 10.2908 7C10.0906 7 9.89869 7.0515 9.71514 7.14592C9.53993 7.24034 9.30632 7.45494 9.03099 7.78112C8.82241 8.02146 8.52205 8.45064 8.11323 9.0515C7.97139 8.3133 7.69607 7.62661 7.30393 7.00858L5.14303 7.38627L5.10131 7.61803C5.25983 7.58369 5.40167 7.56652 5.51013 7.56652C5.72706 7.56652 5.90226 7.66094 6.0441 7.84979C6.26102 8.14163 6.56973 9.03434 6.9702 10.5279C6.6615 10.9485 6.44458 11.2232 6.32777 11.3519C6.13588 11.5579 5.9857 11.6953 5.86055 11.7554C5.76877 11.8069 5.66031 11.8326 5.53516 11.8326C5.44339 11.8326 5.29321 11.7811 5.09297 11.6781C4.95113 11.618 4.82598 11.5837 4.71752 11.5837C4.50894 11.5837 4.33373 11.6524 4.20024 11.7897C4.06675 11.927 4 12.1073 4 12.3133C4 12.5107 4.06675 12.6738 4.1919 12.8026C4.31704 12.9313 4.48391 12.9914 4.70083 12.9914C4.90942 12.9914 5.10131 12.9485 5.28486 12.8627C5.46841 12.7768 5.69368 12.588 5.96901 12.3047C6.24434 12.0215 6.61979 11.5665 7.10369 10.9399C7.28725 11.5322 7.45411 11.9614 7.5876 12.2361C7.7211 12.5021 7.87962 12.6996 8.05483 12.8197C8.23004 12.9399 8.44696 13 8.71395 13C8.97259 13 9.23123 12.9056 9.48987 12.7167C9.8236 12.4678 10.174 12.0558 10.5411 11.4549Z" fill="#111418"/>
</svg>

<svg xmlns="http://www.w3.org/2000/svg" viewBox="0 0 16 16">
  <path d="M10 2v1H5V2c0-.55.45-1 1-1h-.22c.34-.6.98-1 1.72-1s1.38.4 1.72 1H9c.55 0 1 .45 1 1"/>
  <path d="M12 2c.55 0 1 .45 1 1v12c0 .55-.45 1-1 1H3c-.55 0-1-.45-1-1V3c0-.55.45-1 1-1h1v2h7V2zm-1.459 9.455-.225-.129c-.25.352-.434.567-.55.661a.5.5 0 0 1-.276.086c-.125 0-.25-.086-.376-.24-.208-.284-.492-1.048-.842-2.31.317-.557.575-.926.792-1.098a.77.77 0 0 1 .493-.189c.066 0 .183.026.358.069.167.051.326.068.45.068.184 0 .335-.06.451-.188a.67.67 0 0 0 .184-.49c0-.214-.058-.386-.184-.506-.125-.129-.292-.189-.525-.189q-.3.002-.576.146c-.175.094-.409.309-.684.635-.209.24-.509.67-.918 1.27a5.9 5.9 0 0 0-.81-2.042l-2.16.377-.042.232c.159-.034.3-.051.41-.051.216 0 .391.094.533.283q.326.438.926 2.678c-.308.42-.525.695-.642.824-.192.206-.342.343-.467.403a.65.65 0 0 1-.326.078c-.092 0-.242-.052-.442-.155a1 1 0 0 0-.375-.094.7.7 0 0 0-.518.206.73.73 0 0 0-.2.523c0 .198.067.36.192.49.125.128.292.188.509.188q.31 0 .584-.128c.183-.086.409-.275.684-.558s.65-.739 1.135-1.365c.183.592.35 1.021.484 1.296.133.266.292.464.467.584s.392.18.659.18q.388 0 .776-.283c.334-.25.684-.661 1.051-1.262"/>
</svg>
